icon/pk/slide.svg

<svg viewBox="0 0 48 48" fill="none" xmlns="http://www.w3.org/2000/svg" height="1em" width="1em">
  <path d="M41 5.5H7V33.5H41V5.5Z" fill="#2F88FF" stroke="black" stroke-width="4" stroke-linejoin="round"/>
  <path d="M16 41.5L24 33.5L32 41.5" stroke="black" stroke-width="4" stroke-linecap="round" stroke-linejoin="round"/>
  <path d="M13.9239 24.6628L19.5664 19.155L24.0083 23.4999L33.9669 13.5208" stroke="white" stroke-width="4" stroke-linecap="round" stroke-linejoin="round"/>
  <path d="M4 5.5H44" stroke="black" stroke-width="4" stroke-linecap="round" stroke-linejoin="round"/>
</svg>

<svg width="48" height="48" fill="none" xmlns="http://www.w3.org/2000/svg"><path d="M41 5.5H7v28h34v-28Z" fill="#2F88FF" stroke="#000" stroke-width="4" stroke-linejoin="round"/><path d="m16 41.5 8-8 8 8" stroke="#000" stroke-width="4" stroke-linecap="round" stroke-linejoin="round"/><path d="m13.924 24.663 5.642-5.508 4.442 4.345 9.959-9.98" stroke="#fff" stroke-width="4" stroke-linecap="round" stroke-linejoin="round"/><path d="M4 5.5h40" stroke="#000" stroke-width="4" stroke-linecap="round" stroke-linejoin="round"/></svg>
